!!!COM: Paul Hindemith
!!!OTL: [T631_Hin-w20p40m296-303]
**kern	**dynam	**kern	**dynam	**kern	**dynam	**kern	**dynam	**kern	**dynam
*grp:A	*grp:A	*grp:A	*grp:A	*grp:B	*grp:B	*grp:B	*grp:B	*grp:A	*grp:A
*part5	*part5	*part4	*part4	*part3	*part3	*part2	*part2	*part1	*part1
*staff5	*	*staff4	*	*staff3	*	*staff2	*	*staff1	*
*I"Violoncello	*	*I"Viola	*	*I"Violin II	*	*I"Violin I	*	*I"Clarinet in Eb	*
*I'Vc.	*	*I'Vla.	*	*I'Vln. II	*	*I'Vln. I	*	*I'Eb Cl.	*
!!pagebreak:original
*clefF4	*	*clefC3	*	*clefG2	*	*clefG2	*	*clefG2	*
*	*	*	*	*	*	*	*	*ITrd-2c-3	*
*k[]	*	*k[]	*	*k[]	*	*k[]	*	*k[b-e-a-]	*
*	*	*	*	*	*	*	*	*	*
*M3/4	*	*M3/4	*	*M3/4	*	*M3/4	*	*M3/4	*
=1	=1	=1	=1	=1	=1	=1	=1	=1	=1
!	!	!	!	!	!	!	!	!LO:TX:t=[[half-dot]=80]	!
!	!	!	!	!	!LO:DY:t=%s cresc.	!	!LO:DY:t=%s cresc.	!LO:TX:a:B:t=Presto	!
!	!	!	!	!	!LO:DY:ed=brack	!	!LO:DY:ed=brack	!LO:TX:t=P:problem:Hanging slur not implemwnted yet	!LO:DY:ed=brack
8FF#XL	f	8F#XL	f	4ryy	4ryy	4ryy	4ryy	4ff#X)	p
8CC#X 8GG#X	.	8Gn 8B-X	.	.	.	.	.	.	.
8CC# 8GG#	.	8G 8B-	.	4ryy	.	4ryy	4ryy	4r	.
8CC# 8GG#	.	8G 8B-	.	.	.	.	.	.	.
8CC# 8GG#	.	8G 8B-	.	4ryy	4ryy	4ryy	.	(8bbXL	f
8CC#J 8GG#	.	8GJ 8B-	.	.	.	.	.	8cccJ	.
=2	=2	=2	=2	=2	=2	=2	=2	=2	=2
(8BBB#XL 8FF##X	.	(8DL 8A	.	4ryy	.	4ryy	.	2ddd)	.
8CC#XJ 8GG#X)	.	8GJ 8B-X)	.	.	.	.	.	.	.
8CC#L 8GG#	.	8GL 8B-	.	8ryy	.	4ryy	.	.	.
8CC# 8GG#	.	8G 8B-	.	8ryy	.	.	.	.	.
8CC# 8GG#	.	8G 8B-	.	4ryy	.	4ryy	.	(8eeeXL	.
8CC#J 8GG#	.	8GJ 8B-	.	.	.	.	.	8cccJ	.
=3	=3	=3	=3	=3	=3	=3	=3	=3	=3
4DD 4AA	.	4F 4d-X	.	4ryy	.	4ryy	.	2ddd)	.
8CC#XL 8GG#X	.	8GL 8B-X	.	4ryy	.	4ryy	.	.	.
8CC# 8GG#	.	8G 8B-	.	.	.	.	.	.	.
8CC# 8GG#	.	8G 8B-	.	4ryy	.	4ryy	.	(8bbXL	.
8CC#J 8GG#	.	8GJ 8B-	.	.	.	.	.	8dddJ	.
=4	=4	=4	=4	=4	=4	=4	=4	=4	=4
(8CC#XL 8GG#X	.	(8GL 8B-X	.	4ryy	.	4ryy	.	8gggL	.
8BBB#XJ 8FF##X)	.	8DJ 8A)	.	.	.	.	.	8ddd	.
8CC#L 8GG#	.	8GL 8B-	.	4ryy	.	4ryy	.	8bbX	.
8CC# 8GG#	.	8G 8B-	.	.	.	.	.	8ddd	.
8CC# 8GG#	.	8G 8B-	.	4ryy	.	8ryy	.	8ccc	.
8CC#J 8GG#	.	8GJ 8B-	.	.	.	8ryy	.	8aaXJ	.
!!linebreak:original
=5	=5	=5	=5	=5	=5	=5	=5	=5	=5
4CC#X 4GG#X	.	4G 4B-X	.	4ryy	.	4ryy	.	4gg)	.
8CC#L 8GG#	.	8GL 8B-	.	4ryy	.	4ryy	.	(8bbXL	.
8CC# 8GG#	.	8G 8B-	.	.	.	.	.	8cccJ	.
8CC# 8GG#	.	8G 8B-	.	4ryy	.	4ryy	.	[4ddd)	.
8CC#J 8GG#	.	8GJ 8B-	.	.	.	.	.	.	.
=6	=6	=6	=6	=6	=6	=6	=6	=6	=6
(8BBB#XL 8FF##X	.	(8DL 8A	.	4ryy	.	4ryy	.	4ddd]	.
8CC#XJ 8GG#X)	.	8GJ 8B-X)	.	.	.	.	.	.	.
8CC#L 8GG#	.	8GL 8B-	.	4ryy	.	4ryy	.	(8eeeXL	.
8CC# 8GG#	.	8G 8B-	.	.	.	.	.	8cccJ	.
8CC# 8GG#	.	8G 8B-	.	4ryy	.	4ryy	.	[4ddd)	.
8CC#J 8GG#	.	8GJ 8B-	.	.	.	.	.	.	.
=7	=7	=7	=7	=7	=7	=7	=7	=7	=7
4DD 4AA	.	4F 4d-X	.	8ryy	.	4ryy	.	4ddd]	.
.	.	.	.	8ryy	.	.	.	.	.
8CC#XL 8GG#X	.	8GL 8B-X	.	4ryy	.	4ryy	.	(8bbXL	.
8CC# 8GG#	.	8G 8B-	.	.	.	.	.	8ddd	.
8CC# 8GG#	.	8G 8B-	.	4ryy	.	4ryy	.	8ggg	.
8CC#J 8GG#	.	8GJ 8B-	.	.	.	.	.	8dddJ	.
=8	=8	=8	=8	=8	=8	=8	=8	=8	=8
(8CC#XL 8GG#X	.	(8GL 8B-X	.	4ryy	.	4ryy	.	8eeeXL	.
8BBB#XJ 8FF##X)	.	8DJ 8A)	.	.	.	.	.	8ccc	.
8CC#L 8GG#	.	8GL 8B-	.	4ryy	.	4ryy	.	8bbX	.
8CC# 8GG#	.	8G 8B-	.	.	.	.	.	8cccJ	.
8CC# 8GG#	.	8G 8B-	.	4ryy	.	4ryy	.	4ddd)	.
8CC#J 8GG#	.	8GJ 8B-	.	.	.	.	.	.	.
=	=	=	=	=	=	=	=	=	=
*-	*-	*-	*-	*-	*-	*-	*-	*-	*-
!!!system-decoration: s1[(s2,s3,s4,s5)]
